<?xml version="1.0" encoding="UTF-8"?>
<map version="1.10" tiledversion="1.10.2" orientation="orthogonal" renderorder="right-down" width="16" height="20" tilewidth="16" tileheight="16" infinite="0" nextlayerid="4" nextobjectid="13">
 <tileset firstgid="1" source="../../tileset/Tileset completo.tsx"/>
 <layer id="1" name="Walk" width="16" height="20">
  <data encoding="csv">
103,103,103,103,103,103,103,103,103,103,103,103,103,103,103,103,
103,131,103,103,103,103,103,103,103,103,103,103,103,103,103,103,
103,103,103,103,103,103,103,131,131,103,103,103,103,103,103,103,
103,103,103,103,103,103,103,103,103,103,131,131,131,103,103,103,
103,103,103,103,103,103,131,131,131,131,103,103,131,103,103,103,
103,103,103,131,103,131,103,131,103,103,103,103,103,103,103,103,
103,103,103,295,103,103,131,103,103,103,131,131,295,103,103,103,
103,103,103,103,103,103,103,103,103,103,103,103,103,131,103,103,
103,103,103,103,103,103,103,103,103,131,103,103,103,103,103,103,
103,131,103,103,103,131,131,103,131,131,103,103,103,103,103,103,
103,131,131,103,103,103,131,103,131,103,103,103,131,103,103,103,
103,103,131,131,103,103,131,103,103,103,103,103,131,103,103,103,
103,103,103,103,103,103,103,103,103,103,103,131,103,103,103,103,
103,103,103,131,131,103,103,131,131,131,103,103,103,103,103,103,
103,103,103,103,131,131,103,131,103,103,103,103,103,103,103,103,
103,103,131,103,103,103,103,103,131,131,131,103,103,103,131,103,
103,103,103,295,103,103,103,131,131,103,103,103,295,103,103,103,
103,103,131,131,103,131,131,103,131,103,103,103,103,103,103,103,
103,103,103,131,131,103,103,103,103,103,103,131,131,131,103,103,
103,103,103,103,103,103,103,103,103,103,103,103,103,103,103,103
</data>
 </layer>
 <layer id="2" name="NotWalk" width="16" height="20">
  <data encoding="csv">
269,323,323,323,323,323,324,0,0,322,323,323,323,323,323,270,
296,351,351,351,351,351,352,0,0,350,351,351,351,351,351,294,
296,379,379,379,379,379,380,0,0,378,379,379,379,379,379,294,
296,295,295,295,295,295,0,0,0,0,295,295,295,295,295,294,
296,295,295,295,295,295,0,0,0,0,295,295,295,295,295,294,
296,295,295,131,295,295,0,0,0,0,295,295,131,295,295,294,
296,295,295,159,295,295,0,0,0,0,295,295,159,295,295,294,
296,295,295,295,295,295,0,0,0,0,295,295,295,295,295,294,
296,295,295,295,295,295,0,0,0,0,295,295,295,295,295,294,
296,295,295,295,295,295,0,0,0,0,295,295,295,295,295,294,
296,0,0,0,0,0,0,75,0,0,0,0,0,0,0,294,
296,0,0,0,0,0,0,0,0,0,0,0,0,0,0,294,
296,295,295,295,295,295,0,0,0,0,295,295,295,295,295,294,
296,295,295,295,295,295,0,0,0,0,295,295,295,295,295,294,
296,295,295,295,295,295,0,0,0,0,295,295,295,295,295,294,
296,295,295,131,295,295,0,0,0,0,295,295,131,295,295,294,
296,295,295,159,295,295,0,0,0,0,295,295,159,295,295,294,
296,295,295,295,295,295,0,0,0,0,295,295,295,295,295,294,
296,295,295,295,295,295,0,0,0,0,295,295,295,295,295,294,
297,267,267,267,267,267,268,0,0,266,267,267,267,267,267,298
</data>
 </layer>
 <objectgroup id="3" name="Obj">
  <object id="1" name="FlonkS" type="Player" x="120.666" y="298.964">
   <point/>
  </object>
  <object id="2" name="FlonkN" type="Player" x="136.225" y="28.2068">
   <point/>
  </object>
  <object id="7" name="GeneradorDeBombas" x="119.928" y="166.441">
   <point/>
  </object>
  <object id="8" name="TransitionS" type="Transition" x="135.333" y="314.667">
   <properties>
    <property name="nextMap" value="resources/maps/niveles/nivel03/mapaN3_01.tmx"/>
   </properties>
   <point/>
  </object>
  <object id="9" name="TransitionS" type="Transition" x="119.333" y="315.333">
   <properties>
    <property name="nextMap" value="resources/maps/niveles/nivel03/mapaN3_01.tmx"/>
   </properties>
   <point/>
  </object>
  <object id="10" name="TransitionN" type="Transition" x="120.667" y="12.9548">
   <properties>
    <property name="nextMap" value="resources/maps/niveles/nivel03/mapaN3_05.tmx"/>
   </properties>
   <point/>
  </object>
  <object id="11" name="TransitionN" type="Transition" x="135.117" y="13.6215">
   <properties>
    <property name="nextMap" value="resources/maps/niveles/nivel03/mapaN3_05.tmx"/>
   </properties>
   <point/>
  </object>
  <object id="12" name="Palanca" type="ObjInteract" x="199.446" y="91.9668">
   <properties>
    <property name="nextMap" value="resources/maps/niveles/nivel03/mapaN3_04.tmx"/>
    <property name="pushed" type="bool" value="true"/>
   </properties>
   <point/>
  </object>
 </objectgroup>
</map>
