<?xml version="1.0" encoding="UTF-8"?>
<map version="1.10" tiledversion="1.10.2" orientation="orthogonal" renderorder="right-down" width="14" height="14" tilewidth="16" tileheight="16" infinite="0" nextlayerid="4" nextobjectid="60">
 <tileset firstgid="1" source="../../tileset/Tileset completo.tsx"/>
 <layer id="1" name="Walk" width="14" height="14">
  <data encoding="csv">
103,103,103,103,103,103,103,103,103,103,103,103,103,103,
103,103,103,103,103,103,103,103,103,103,103,103,103,103,
103,103,103,131,103,103,131,131,103,131,103,131,103,103,
103,103,103,103,103,103,103,103,103,103,103,131,103,103,
103,103,103,103,103,103,131,131,131,103,103,103,103,103,
103,103,131,103,103,131,131,103,103,103,103,131,103,103,
103,131,131,103,131,103,103,103,103,103,131,131,103,103,
103,131,103,103,131,103,103,103,103,103,103,131,103,103,
103,131,103,103,103,103,103,103,131,103,103,131,103,103,
103,103,103,131,131,131,103,103,103,103,103,103,103,103,
103,103,103,131,103,103,103,103,103,103,103,103,103,103,
103,103,103,131,131,103,131,103,131,103,103,131,103,103,
103,103,103,103,103,103,103,103,103,103,103,103,103,103,
103,103,103,103,103,103,103,103,103,103,103,103,103,103
</data>
 </layer>
 <layer id="2" name="NotWalk" width="14" height="14">
  <data encoding="csv">
269,323,323,323,323,324,159,159,322,323,323,323,323,270,
296,351,351,351,351,352,159,159,350,351,351,351,351,294,
296,379,379,379,379,380,159,159,378,379,379,379,379,294,
296,75,0,0,0,0,0,0,0,0,0,0,0,294,
324,0,0,0,0,0,0,0,0,0,0,0,0,294,
352,0,0,0,0,0,0,0,0,0,0,0,0,294,
380,0,0,0,0,0,0,0,0,0,0,0,0,294,
0,0,0,0,0,0,0,0,0,0,0,0,0,294,
0,0,0,0,0,0,0,0,0,0,0,0,0,294,
268,0,0,0,0,0,0,0,0,0,0,0,0,294,
324,0,0,0,0,0,0,0,0,0,0,0,0,294,
352,0,0,0,0,0,0,0,0,0,0,0,0,294,
380,299,299,299,299,299,299,299,299,299,299,0,0,294,
0,0,0,0,0,0,0,0,0,0,0,0,0,298
</data>
 </layer>
 <objectgroup id="3" name="Obj">
  <object id="1" name="GeneradorDeBombas" x="22.7274" y="55.0452">
   <point/>
  </object>
  <object id="36" name="CintaTransportadora" type="ObjInteract" x="38.4346" y="216.981">
   <properties>
    <property name="direccion" type="int" value="3"/>
   </properties>
   <point/>
  </object>
  <object id="37" name="CintaTransportadora" type="ObjInteract" x="53.9722" y="217.798">
   <properties>
    <property name="direccion" type="int" value="3"/>
   </properties>
   <point/>
  </object>
  <object id="38" name="CintaTransportadora" type="ObjInteract" x="70.6001" y="218.889">
   <properties>
    <property name="direccion" type="int" value="3"/>
   </properties>
   <point/>
  </object>
  <object id="39" name="CintaTransportadora" type="ObjInteract" x="87.7732" y="217.798">
   <properties>
    <property name="direccion" type="int" value="3"/>
   </properties>
   <point/>
  </object>
  <object id="40" name="CintaTransportadora" type="ObjInteract" x="104.401" y="218.071">
   <properties>
    <property name="direccion" type="int" value="3"/>
   </properties>
   <point/>
  </object>
  <object id="41" name="CintaTransportadora" type="ObjInteract" x="118.303" y="217.798">
   <properties>
    <property name="direccion" type="int" value="3"/>
   </properties>
   <point/>
  </object>
  <object id="42" name="CintaTransportadora" type="ObjInteract" x="132.75" y="218.071">
   <properties>
    <property name="direccion" type="int" value="3"/>
   </properties>
   <point/>
  </object>
  <object id="43" name="CintaTransportadora" type="ObjInteract" x="150.469" y="217.253">
   <properties>
    <property name="direccion" type="int" value="3"/>
   </properties>
   <point/>
  </object>
  <object id="44" name="CintaTransportadora" type="ObjInteract" x="166.824" y="216.981">
   <properties>
    <property name="direccion" type="int" value="3"/>
   </properties>
   <point/>
  </object>
  <object id="45" name="CintaTransportadora" type="ObjInteract" x="182.634" y="217.253">
   <properties>
    <property name="direccion" type="int" value="3"/>
   </properties>
   <point/>
  </object>
  <object id="46" name="CintaTransportadora" type="ObjInteract" x="197.627" y="217.253">
   <properties>
    <property name="direccion" type="int" value="3"/>
   </properties>
   <point/>
  </object>
  <object id="49" name="FlonkW" type="Player" x="26.4411" y="124.028">
   <point/>
  </object>
  <object id="51" name="TransitionW" type="Transition" x="8.72285" y="124.573">
   <properties>
    <property name="nextMap" value="resources/maps/niveles/nivel03/mapaN3_01-2.tmx"/>
   </properties>
   <point/>
  </object>
  <object id="52" name="TransitionW" type="Transition" x="7.3599" y="135.204">
   <properties>
    <property name="nextMap" value="resources/maps/niveles/nivel03/mapaN3_01-2.tmx"/>
   </properties>
   <point/>
  </object>
  <object id="53" name="Palanca" type="ObjInteract" x="11.1761" y="219.162">
   <properties>
    <property name="nextMap" value="resources/maps/niveles/nivel03/mapaN3_02.tmx"/>
    <property name="pushed" type="bool" value="false"/>
   </properties>
   <point/>
  </object>
  <object id="54" name="TransitionN" type="Transition" x="102.939" y="11.1761">
   <properties>
    <property name="nextMap" value="resources/maps/niveles/nivel03/mapaN3_03.tmx"/>
   </properties>
   <point/>
  </object>
  <object id="55" name="TransitionN" type="Transition" x="119.939" y="11.1761">
   <properties>
    <property name="nextMap" value="resources/maps/niveles/nivel03/mapaN3_03.tmx"/>
   </properties>
   <point/>
  </object>
  <object id="56" name="Black ant" type="Enemigo" x="168.642" y="74.64">
   <point/>
  </object>
  <object id="57" name="Black ant" type="Enemigo" x="135.642" y="106.641">
   <point/>
  </object>
  <object id="58" name="Black ant" type="Enemigo" x="137.642" y="137.641">
   <point/>
  </object>
  <object id="59" name="Black ant" type="Enemigo" x="167.642" y="170.641">
   <point/>
  </object>
 </objectgroup>
</map>
