<?xml version="1.0" encoding="UTF-8"?>
<map version="1.10" tiledversion="1.10.2" orientation="orthogonal" renderorder="right-down" width="16" height="20" tilewidth="16" tileheight="16" infinite="0" nextlayerid="4" nextobjectid="14">
 <tileset firstgid="1" source="../../tileset/Tileset completo.tsx"/>
 <layer id="1" name="Walk" width="16" height="20">
  <data encoding="csv">
103,103,103,103,103,103,103,103,103,103,103,103,103,103,103,103,
103,131,103,103,103,103,103,103,103,103,103,103,103,103,103,103,
103,103,103,103,103,103,103,131,131,103,103,103,103,103,103,103,
103,103,103,103,103,103,103,103,103,103,131,131,131,103,103,103,
103,103,103,103,103,103,131,131,131,131,103,103,131,103,103,103,
103,103,103,131,103,131,103,131,103,103,103,103,103,103,103,103,
103,103,103,295,103,103,131,103,103,103,131,131,295,103,103,103,
103,103,103,103,103,103,103,103,103,103,103,103,103,131,103,103,
103,103,103,103,103,103,103,103,103,131,103,103,103,103,103,103,
103,131,103,103,103,131,131,103,131,131,103,103,103,103,103,103,
103,131,131,103,103,103,131,103,131,103,103,103,131,103,103,103,
103,103,131,131,103,103,131,103,103,103,103,103,131,103,103,103,
103,103,103,103,103,103,103,103,103,103,103,131,103,103,103,103,
103,103,103,131,131,103,103,131,131,131,103,103,103,103,103,103,
103,103,103,103,131,131,103,131,103,103,103,103,103,103,103,103,
103,103,131,103,103,103,103,103,131,131,131,103,103,103,131,103,
103,103,103,295,103,103,103,131,131,103,103,103,295,103,103,103,
103,103,131,131,103,131,131,103,131,103,103,103,103,103,103,103,
103,103,103,131,131,103,103,103,103,103,103,131,131,131,103,103,
103,103,103,103,103,103,103,103,103,103,103,103,103,103,103,103
</data>
 </layer>
 <layer id="2" name="NotWalk" width="16" height="20">
  <data encoding="csv">
269,323,323,323,323,323,324,159,159,322,323,323,323,323,323,270,
296,351,351,351,351,351,352,159,159,350,351,351,351,351,351,294,
296,379,379,379,379,379,380,159,159,378,379,379,379,379,379,294,
296,295,295,295,295,295,0,0,0,0,295,295,295,295,295,294,
296,295,295,295,295,295,0,0,0,0,295,295,295,295,295,294,
296,295,295,131,295,295,0,0,0,0,295,295,131,295,295,294,
296,295,295,159,295,295,0,0,0,0,295,295,159,295,295,294,
296,295,295,295,295,295,0,0,0,0,295,295,295,295,295,294,
296,295,295,295,295,295,0,0,0,0,295,295,295,295,295,294,
296,295,295,295,295,295,0,0,0,0,295,295,295,295,295,294,
296,0,0,0,0,0,0,75,0,0,0,0,0,0,0,294,
296,0,0,0,0,0,0,0,0,0,0,0,0,0,0,294,
296,295,295,295,295,295,0,0,0,0,295,295,295,295,295,294,
296,295,295,295,295,295,0,0,0,0,295,295,295,295,295,294,
296,295,295,295,295,295,0,0,0,0,295,295,295,295,295,294,
296,295,295,131,295,295,0,0,0,0,295,295,131,295,295,294,
296,295,295,159,295,295,0,0,0,0,295,295,159,295,295,294,
296,295,295,295,295,295,0,0,0,0,295,295,295,295,295,294,
296,295,295,295,295,295,0,0,0,0,295,295,295,295,295,294,
297,267,267,267,267,267,268,0,0,266,267,267,267,267,267,298
</data>
 </layer>
 <objectgroup id="3" name="Obj">
  <object id="7" name="GeneradorDeBombas" x="120.298" y="166.81">
   <point/>
  </object>
  <object id="8" name="TransitionN" type="Transition" x="120.361" y="14.4764">
   <properties>
    <property name="nextMap" value="resources/maps/niveles/nivel03/mapaN3_05.tmx"/>
   </properties>
   <point/>
  </object>
  <object id="9" name="TransitionN" type="Transition" x="135.919" y="16.2512">
   <properties>
    <property name="nextMap" value="resources/maps/niveles/nivel03/mapaN3_05.tmx"/>
   </properties>
   <point/>
  </object>
  <object id="10" name="FlonkS" type="Player" x="121.37" y="299.42">
   <point/>
  </object>
  <object id="11" name="TransitionS" type="Transition" x="136.037" y="315.123">
   <properties>
    <property name="nextMap" value="resources/maps/niveles/nivel03/mapaN3_01.tmx"/>
   </properties>
   <point/>
  </object>
  <object id="12" name="TransitionS" type="Transition" x="120.037" y="315.789">
   <properties>
    <property name="nextMap" value="resources/maps/niveles/nivel03/mapaN3_01.tmx"/>
   </properties>
   <point/>
  </object>
  <object id="13" name="Palanca" type="ObjInteract" x="200.185" y="93.0748">
   <properties>
    <property name="nextMap" value="resources/maps/niveles/nivel03/mapaN3_04.tmx"/>
    <property name="pushed" type="bool" value="false"/>
   </properties>
   <point/>
  </object>
 </objectgroup>
</map>
